X: 18481
T: Hyd Y Frwynen
R: reel
M: 4/4
K: Eminor
|:E2B2B2AG|F2E2E2D2|E2EFG2GA|B2Bc BAGF|
E2B2B2AG|F2E2E2D2|E2EFG2GA|B2Bc B4:|
|:B2Bcd2cB|A2ABc2BA|B2Bcd2cB|ABAGF4|
GABcB2AG|FGABA2GF|G2FEB2AG|F2E2E4:|

